resources/svg/logo.svg

<svg xmlns="http://www.w3.org/2000/svg" viewBox="0 0 86 86"><path fill-rule="evenodd" d="M46.4355732 0c10.3298727 0 16.630063 1.57803539 22.1708038 4.54125596 5.5407407 2.96322058 9.8891465 7.31162634 12.852367 12.85236704C84.4219646 22.9343638 86 29.2345541 86 39.5644268v6.8711464c0 10.3298727-1.5780354 16.630063-4.541256 22.1708038-2.9632205 5.5407407-7.3116263 9.8891465-12.852367 12.852367C63.0656362 84.4219646 56.7654459 86 46.4355732 86h-6.8711464c-10.3298727 0-16.630063-1.5780354-22.1708038-4.541256-5.5407407-2.9632205-9.88914646-7.3116263-12.85236704-12.852367C1.57803539 63.0656362 0 56.7654459 0 46.4355732v-6.8711464c0-10.3298727 1.57803539-16.630063 4.54125596-22.1708038C7.50447654 11.8528823 11.8528823 7.50447654 17.393623 4.54125596 22.9343638 1.57803539 29.2345541 0 39.5644268 0h6.8711464ZM59.5 28.3333333c-8.0081289 0-14.5 6.4918712-14.5 14.5 0 8.0081289 6.4918711 14.5 14.5 14.5 8.0081289 0 14.5-6.4918711 14.5-14.5 0-8.0081288-6.4918711-14.5-14.5-14.5Zm-33 0c-8.0081289 0-14.5 6.4918712-14.5 14.5 0 8.0081289 6.4918711 14.5 14.5 14.5 8.0081289 0 14.5-6.4918711 14.5-14.5 0-8.0081288-6.4918711-14.5-14.5-14.5Zm33 2.5c6.627417 0 12 5.372583 12 12s-5.372583 12-12 12-12-5.372583-12-12 5.372583-12 12-12Zm-33 0c6.627417 0 12 5.372583 12 12s-5.372583 12-12 12-12-5.372583-12-12 5.372583-12 12-12Z" /></svg>

<svg viewBox="0 0 86 86" version="1.1" xmlns="http://www.w3.org/2000/svg" xmlns:xlink="http://www.w3.org/1999/xlink">
    <g stroke="none" stroke-width="1" fill="none" fill-rule="evenodd">
        <g fill="#000000" fill-rule="nonzero">
            <path d="M46.4355732,0 C56.7654459,0 63.0656362,1.57803539 68.606377,4.54125596 C74.1471177,7.50447654 78.4955235,11.8528823 81.458744,17.393623 C84.4219646,22.9343638 86,29.2345541 86,39.5644268 L86,46.4355732 C86,56.7654459 84.4219646,63.0656362 81.458744,68.606377 C78.4955235,74.1471177 74.1471177,78.4955235 68.606377,81.458744 C63.0656362,84.4219646 56.7654459,86 46.4355732,86 L39.5644268,86 C29.2345541,86 22.9343638,84.4219646 17.393623,81.458744 C11.8528823,78.4955235 7.50447654,74.1471177 4.54125596,68.606377 C1.57803539,63.0656362 0,56.7654459 0,46.4355732 L0,39.5644268 C0,29.2345541 1.57803539,22.9343638 4.54125596,17.393623 C7.50447654,11.8528823 11.8528823,7.50447654 17.393623,4.54125596 C22.9343638,1.57803539 29.2345541,0 39.5644268,0 L46.4355732,0 Z M59.5,28.3333333 C51.4918711,28.3333333 45,34.8252045 45,42.8333333 C45,50.8414622 51.4918711,57.3333333 59.5,57.3333333 C67.5081289,57.3333333 74,50.8414622 74,42.8333333 C74,34.8252045 67.5081289,28.3333333 59.5,28.3333333 Z M26.5,28.3333333 C18.4918711,28.3333333 12,34.8252045 12,42.8333333 C12,50.8414622 18.4918711,57.3333333 26.5,57.3333333 C34.5081289,57.3333333 41,50.8414622 41,42.8333333 C41,34.8252045 34.5081289,28.3333333 26.5,28.3333333 Z"></path>
            <g id="right-eye" class="transition-transform duration-200 ease-in-out group-hover:scale-75" style="transform-origin: 59.5px 42.833333px">
                <path d="M59.5,30.833333 C66.127417,30.833333 71.5,36.205916 71.5,42.833333 C71.5,49.46075 66.127417,54.833333 59.5,54.833333 C52.872583,54.833333 47.5,49.46075 47.5,42.833333 C47.5,36.205916 52.872583,30.833333 59.5,30.833333 Z"></path>
            </g>
            <g id="left-eye" class="transition-transform duration-200 ease-in-out group-hover:scale-75" style="transform-origin: 26.5px 42.833333px">
                <path d="M26.5,30.833333 C33.127417,30.833333 38.5,36.205916 38.5,42.833333 C38.5,49.46075 33.127417,54.833333 26.5,54.833333 C19.872583,54.833333 14.5,49.46075 14.5,42.833333 C14.5,36.205916 19.872583,30.833333 26.5,30.833333 Z"></path>
            </g>
        </g>
    </g>
</svg>
